static/assets/images/networks/mantle-mono.svg

<svg width="256" height="256" viewBox="0 0 256 256" fill="none" xmlns="http://www.w3.org/2000/svg">
<path d="M52.6877 89.7672L13.8697 70.0027C10.8334 75.9682 8.24746 82.2232 6.18975 88.5938L47.639 101.997C48.9935 97.8067 50.6882 93.6916 52.6877 89.7672Z" fill="black"/>
<path d="M85.6616 54.9342L107.162 91.9807C110.302 90.1597 113.663 88.7593 117.159 87.8193L106.032 46.4536C108.863 45.692 111.741 45.0634 114.635 44.6064L107.797 1.5812C101.184 2.6311 94.6121 4.2158 88.2605 6.28652L101.557 47.0369C97.3273 48.4174 93.2089 50.1316 89.2425 52.1603L69.699 14.0121C63.756 17.0582 58.0073 20.5969 52.6054 24.5408L78.2861 59.7273C80.6516 58.0031 83.1272 56.4087 85.6616 54.9342Z" fill="black"/>
<path d="M201.038 85.6283L164.006 107.149C165.83 110.286 167.23 113.649 168.173 117.14L209.535 105.992C210.297 108.824 210.925 111.699 211.385 114.589L254.403 107.739C253.35 101.128 251.762 94.553 249.685 88.1985L208.942 101.52C207.558 97.2915 205.844 93.1757 203.812 89.2093L241.946 69.6397C238.9 63.7029 235.355 57.954 231.412 52.555L196.236 78.2532C197.963 80.6188 199.564 83.0909 201.038 85.6283Z" fill="black"/>
<path d="M185.937 13.8377C179.965 10.8046 173.71 8.22175 167.346 6.16722L153.966 47.6241C158.153 48.9754 162.268 50.6734 166.199 52.6696L185.937 13.8377Z" fill="black"/>
<path d="M170.469 54.1751L148.723 91.9183C151.873 93.733 154.776 95.9563 157.359 98.5286L218.351 37.3272C213.62 32.6122 208.481 28.2342 203.075 24.313L177.919 59.0068C175.522 57.2698 173.035 55.656 170.469 54.1751Z" fill="black"/>
<path d="M54.2003 85.4916L91.9325 107.262C93.7471 104.116 95.9767 101.209 98.5532 98.6226L37.3789 37.6058C32.6608 42.3371 28.2796 47.4734 24.3586 52.8754L59.0384 78.0486C57.3015 80.4429 55.6813 82.9255 54.2003 85.4916Z" fill="black"/>
<path d="M141.204 43.8743L147.786 1.52309C141.282 0.512019 134.626 0 127.999 0H127.899V86.407H127.999C131.642 86.407 135.245 86.8738 138.713 87.7941L149.886 45.689C147.027 44.9307 144.13 44.3313 141.204 43.8743Z" fill="black"/>
<path d="M87.7951 117.264L45.6975 106.061C44.936 108.92 44.3333 111.817 43.8764 114.743L1.53276 108.142C0.515245 114.669 0 121.35 0 127.997H86.4045C86.4045 124.348 86.872 120.735 87.7951 117.264Z" fill="black"/>
<path d="M203.312 166.24L242.13 186.004C245.166 180.038 247.752 173.784 249.81 167.413L208.361 154.01C207.006 158.2 205.312 162.315 203.312 166.24Z" fill="black"/>
<path d="M170.336 201.064L148.836 164.017C145.696 165.838 142.335 167.238 138.839 168.178L149.967 209.544C147.131 210.306 144.257 210.935 141.363 211.392L148.197 254.413C154.811 253.363 161.383 251.778 167.735 249.708L154.439 208.957C158.671 207.577 162.786 205.863 166.753 203.834L186.296 241.982C192.239 238.936 197.987 235.397 203.389 231.454L177.708 196.267C175.343 197.991 172.871 199.589 170.336 201.064Z" fill="black"/>
<path d="M54.9632 170.38L91.9991 148.86C90.1747 145.723 88.7743 142.359 87.8316 138.869L46.4699 150.017C45.7083 147.184 45.0797 144.31 44.6196 141.419L1.59867 148.27C2.65183 154.881 4.23968 161.456 6.31684 167.811L47.0597 154.488C48.4433 158.718 50.1576 162.833 52.1894 166.8L14.0552 186.37C17.1012 192.306 20.6463 198.055 24.59 203.454L59.7657 177.756C58.0385 175.39 56.4376 172.918 54.9632 170.38Z" fill="black"/>
<path d="M70.0628 242.166C76.0348 245.2 82.2889 247.782 88.6537 249.837L102.034 208.38C97.8467 207.028 93.7317 205.33 89.8004 203.334L70.0628 242.166Z" fill="black"/>
<path d="M85.5298 201.834L107.277 164.091C104.127 162.276 101.224 160.053 98.6408 157.481L37.6484 218.682C42.3796 223.397 47.519 227.775 52.9241 231.696L78.08 197.002C80.4785 198.739 82.9631 200.353 85.5298 201.834Z" fill="black"/>
<path d="M201.798 170.516L164.065 148.746C162.251 151.893 160.021 154.8 157.445 157.385L218.616 218.406C223.335 213.674 227.715 208.538 231.637 203.136L196.956 177.963C198.694 175.568 200.317 173.083 201.798 170.516Z" fill="black"/>
<path d="M117.287 168.206L106.114 210.311C108.972 211.069 111.869 211.669 114.795 212.126L108.217 254.477C114.721 255.488 121.377 256 128.004 256H128.104V169.593H128.004C124.361 169.593 120.754 169.126 117.287 168.206Z" fill="black"/>
<path d="M169.595 128.006C169.595 131.655 169.126 135.265 168.202 138.739L210.299 149.942C211.061 147.083 211.664 144.186 212.12 141.26L254.468 147.865C255.485 141.338 256 134.656 256 128.009L169.595 128.006Z" fill="black"/>
</svg>

<svg xmlns="http://www.w3.org/2000/svg" fill="none" viewBox="0 0 256 256"><path fill="#000" d="M52.688 89.767 13.87 70.003a127.5 127.5 0 0 0-7.68 18.59l41.449 13.404a84 84 0 0 1 5.049-12.23m32.974-34.833 21.5 37.047a41.3 41.3 0 0 1 9.997-4.162l-11.127-41.365a83 83 0 0 1 8.603-1.848l-6.838-43.025A128 128 0 0 0 88.26 6.287l13.297 40.75a85 85 0 0 0-12.314 5.123L69.699 14.012a128.4 128.4 0 0 0-17.094 10.529l25.681 35.186a86 86 0 0 1 7.376-4.793m115.376 30.694-37.032 21.521a41.3 41.3 0 0 1 4.167 9.991l41.362-11.148a84 84 0 0 1 1.85 8.597l43.018-6.85a128 128 0 0 0-4.718-19.54l-40.743 13.321a85 85 0 0 0-5.13-12.31l38.134-19.57a128.6 128.6 0 0 0-10.534-17.085l-35.176 25.698a85 85 0 0 1 4.802 7.375m-15.101-71.79a128 128 0 0 0-18.591-7.67l-13.38 41.456a84 84 0 0 1 12.233 5.046zm-15.468 40.337-21.746 37.743a41.8 41.8 0 0 1 8.636 6.61l60.992-61.2a129 129 0 0 0-15.276-13.015l-25.156 34.694a86 86 0 0 0-7.45-4.832M54.2 85.492l37.733 21.77a42 42 0 0 1 6.62-8.64L37.38 37.607a129 129 0 0 0-13.02 15.27L59.04 78.05a85 85 0 0 0-4.839 7.443m87.003-41.619 6.582-42.35A129 129 0 0 0 127.999 0h-.1v86.407h.1c3.643 0 7.246.467 10.714 1.387l11.173-42.105a85 85 0 0 0-8.682-1.815m-53.409 73.39-42.098-11.203a84 84 0 0 0-1.82 8.682l-42.344-6.601A129 129 0 0 0 0 127.997h86.405c0-3.649.467-7.262 1.39-10.733m115.517 48.976 38.818 19.764a127.6 127.6 0 0 0 7.68-18.591l-41.449-13.403a84 84 0 0 1-5.049 12.23m-32.976 34.824-21.5-37.047a41.3 41.3 0 0 1-9.997 4.161l11.128 41.366a83 83 0 0 1-8.604 1.848l6.834 43.021a128 128 0 0 0 19.538-4.705l-13.296-40.751a85 85 0 0 0 12.314-5.123l19.543 38.148a128.5 128.5 0 0 0 17.093-10.528l-25.681-35.187a86 86 0 0 1-7.372 4.797M54.963 170.38 92 148.86a41.3 41.3 0 0 1-4.167-9.991L46.47 150.017a84 84 0 0 1-1.85-8.598L1.599 148.27a128 128 0 0 0 4.718 19.541l40.743-13.323a85 85 0 0 0 5.13 12.312l-38.135 19.57a128.6 128.6 0 0 0 10.535 17.084l35.176-25.698a85 85 0 0 1-4.803-7.376m15.1 71.786a128 128 0 0 0 18.59 7.671l13.381-41.457a84.4 84.4 0 0 1-12.234-5.046zm15.467-40.332 21.747-37.743a42 42 0 0 1-8.636-6.61l-60.993 61.201a129 129 0 0 0 15.276 13.014l25.156-34.694a86 86 0 0 0 7.45 4.832m116.268-31.318-37.733-21.77a42 42 0 0 1-6.62 8.639l61.171 61.021a129 129 0 0 0 13.021-15.27l-34.681-25.173a85 85 0 0 0 4.842-7.447m-84.511-2.31-11.173 42.105a85 85 0 0 0 8.681 1.815l-6.578 42.351A129 129 0 0 0 128.004 256h.1v-86.407h-.1c-3.643 0-7.25-.467-10.717-1.387m52.308-40.2c0 3.649-.469 7.259-1.393 10.733l42.097 11.203a84 84 0 0 0 1.821-8.682l42.348 6.605A129.4 129.4 0 0 0 256 128.009z"/></svg>
